packages/ui-icons/svg/Line/textarea.svg

<svg viewBox="0 0 1920 1920" xmlns="http://www.w3.org/2000/svg">
    <path d="M480 660h960V540H480v120Zm0 360h720V900H480v120Zm-60 810H300c0-231.6 188.4-420 420-420h1080V210H120v1620H0V90h1920v1440H720c-165.36 0-300 134.64-300 300" fill-rule="evenodd"/>
</svg>

<svg viewBox="0 0 1920 1920" version="1.1" xmlns="http://www.w3.org/2000/svg">
    <path d="M480,660 L1440,660 L1440,540 L480,540 L480,660 Z M480,1020 L1200,1020 L1200,900 L480,900 L480,1020 Z M420,1830 L300,1830 C300,1598.4 488.4,1410 720,1410 L1800,1410 L1800,210 L120,210 L120,1830 L0,1830 L0,90 L1920,90 L1920,1530 L720,1530 C554.64,1530 420,1664.64 420,1830" stroke="none" stroke-width="1" fill-rule="evenodd"/>
</svg>
